outputs/icons/device/flight_mode_sharp.svg

<svg xmlns="http://www.w3.org/2000/svg" width="1200" height="1200" fill="none"><g clip-path="url(#a)"><path fill="#000" d="M1100 800V700L675 450V175c0-41.5-33.5-75-75-75s-75 33.5-75 75v275L100 700v100l425-125v275l-125 75v75l200-50 200 50v-75l-125-75V675z"/></g><defs><clipPath id="a"><path fill="#fff" d="M0 0h1200v1200H0z"/></clipPath></defs></svg>

<svg width="1200" height="1200" viewBox="0 0 1200 1200" fill="none" xmlns="http://www.w3.org/2000/svg"><g clip-path="url(#clip0_225_4043)"><path d="M1100 800V700L675 450V175C675 133.5 641.5 100 600 100C558.5 100 525 133.5 525 175V450L100 700V800L525 675V950L400 1025V1100L600 1050L800 1100V1025L675 950V675L1100 800Z" fill="#1D1E23"/></g><defs><clipPath id="clip0_225_4043"><path width="24" fill="white" d="M0 0H1200V1200H0V0z"/></clipPath></defs></svg>
